X:1
T:Norges Høitidsstund
T:Norges Høitidsstund
T:Henrik Wergeland
T:Karl Svensen
C:Karl Svensen
%%score [ 1 2 3 4 ]
L:1/8
Q:1/4=70
M:4/4
K:C
V:1 treble nm="Soprano"
V:2 treble nm="Alto"
V:3 treble-8 nm="Tenor"
V:4 bass nm="Bass"
V:1
 G3 G G2 E2 | C2 (EG) A2 A2 | A3 A A2 F2 | D2 (FA) B2 z2 | c2 B2 A3 A | B2 A2 G2 G2 | d3 c B2 A2 | %7
w: Nor- ges Høy- tids-|stund er _ kom- men,|aab- net har sig|Thin- gets _ Hal.|Høit og lydt i|Hel- lig- dom- men|rø- ster nu hver|
 G2 ^F2 G2 z2 | D2 E2 =F3 F | E2 ^G2 A2 B2 | d2 (cB) c2 A2 | e3 c B2 z2 | c2 A2 G2 E2 | %13
w: Nor- ges Dal.|Ag- de- sid og|Thrøn- de- la- gen|sam- men _ nu kan|veks- le Ord;|Dov- re i sin|
 D2 (EF) A2 G2 | E2 (FG) B2 A2 | G2 d2 c2 z2 |] %16
w: Døl er _ dra- gen|nu til _ Thin- ge|for sit Nord.|
V:2
 G3 G G2 E2 | C2 (EG) A2 A2 | A3 A A2 F2 | D2 (FA) B2 z2 | E2 E2 E3 E | ^D2 D2 E2 E2 | %6
w: Nor- ges Høy- tids-|stund er _ kom- men,|aab- net har sig|Thin- gets _ Hal.|Høit og lydt i|Hel- lig- dom- men|
 E3 ^F G2 E2 | D2 D2 B,2 z2 | A,2 ^C2 D3 =C | B,2 E2 E2 ^G2 | B2 A2 A2 A2 | ^G3 A G2 z2 | %12
w: rø- ster nu hver|Nor- ges Dal.|Ag- de- sid og|Thrøn- de- la- gen|sam- men nu kan|veks- le Ord;|
 A2 E2 D2 C2 | A,2 (^CD) =C2 C2 | C2 (FE) _E2 E2 | E2 F2 E2 z2 |] %16
w: Dov- re i sin|Døl er _ dra- gen|nu til _ Thin- ge|for sit Nord.|
V:3
 G3 G G2 E2 | C2 (EG) A2 A2 | A3 A A2 F2 | D2 (FA) B2 z2 | c2 c2 c3 c | B2 B2 B2 B2 | A3 c d2 c2 | %7
w: Nor- ges Høy- tids-|stund er _ kom- men,|aab- net har sig|Thin- gets _ Hal.|Høit og lydt i|Hel- lig- dom- men|rø- ster nu hver|
 B2 A2 G2 z2 | F2 G2 A3 A | ^G2 B2 c2 d2 | f2 e2 e2 A2 | B3 ^d e2 z2 | e2 c2 d2 G2 | %13
w: Nor- ges Dal.|Ag- de- sid og|Thrøn- de- la- gen|sam- men nu kan|veks- le Ord;|Dov- re i sin|
 A2 (GF) ^F2 G2 | c2 c2 c2 c2 | c2 B2 c2 z2 |] %16
w: Døl er _ dra- gen|nu til Thin- ge|for sit Nord.|
V:4
 G,3 G, G,2 E,2 | C,2 (E,G,) A,2 A,2 | A,3 A, A,2 F,2 | D,2 (F,A,) B,2 z2 | A,2 G,2 ^F,3 F, | %5
w: Nor- ges Høy- tids-|stund er _ kom- men,|aab- net har sig|Thin- gets _ Hal.|Høit og lydt i|
 G,2 ^F,2 E,2 E,2 | A,,3 A,, B,,2 C,2 | D,2 D,2 G,,2 z2 | F,2 E,2 D,3 D, | E,2 D,2 C,2 B,,2 | %10
w: Hel- lig- dom- men|rø- ster nu hver|Nor- ges Dal.|Ag- de- sid og|Thrøn- de- la- gen|
 A,,2 (C,E,) A,2 (G,F,) | E,3 E, E,2 z2 | A,2 A,,2 B,,2 C,2 | F,2 (E,D,) ^D,2 E,2 | %14
w: sam- men _ nu kan _|veks- le Ord;|Dov- re i sin|Døl er _ dra- gen|
 (CB,) (A,G,) ^F,2 F,2 | G,2 G,,2 C,2 z2 |] %16
w: nu _ til _ Thin- ge|for sit Nord.|

